X: 41636
T: Up The Roman Road
R: reel
M: 4/4
K: Gminor
|:B2BG B2AG|AcfA cfcA|B2BG B2AG|AFcAG4:|
K:A
|:A2AB c2BA|GEBE cEBE|A2AB c2BA|GEBG AEFG|
A2AB c2BA|GEBE cEBE|A2AB c2BA|GEBG A4:|

